svgs/sharp-solid/bell-school.svg

<svg xmlns="http://www.w3.org/2000/svg" viewBox="0 0 512 512"><!--! Font Awesome Pro 6.6.0 by @fontawesome - https://fontawesome.com License - https://fontawesome.com/license (Commercial License) Copyright 2024 Fonticons, Inc. --><path d="M208 128a80 80 0 1 1 0 160 80 80 0 1 1 0-160zm0 288A208 208 0 1 0 208 0a208 208 0 1 0 0 416zm48-208a48 48 0 1 0 -96 0 48 48 0 1 0 96 0zM208 448c-54 0-103.9-17.9-144-48l0 112 256 0 32 0 112 0 24 0 0-24 0-46.4c14.3-8.3 24-23.8 24-41.6c0-26.5-21.5-48-48-48s-48 21.5-48 48c0 17.8 9.7 33.3 24 41.6l0 22.4-88 0 0-64c-40.1 30.1-90 48-144 48z"/></svg>

<svg xmlns="http://www.w3.org/2000/svg" viewBox="0 0 512 512"><!--! Font Awesome Pro 6.4.2 by @fontawesome - https://fontawesome.com License - https://fontawesome.com/license (Commercial License) Copyright 2023 Fonticons, Inc. --><path d="M208 128a80 80 0 1 1 0 160 80 80 0 1 1 0-160zm0 288A208 208 0 1 0 208 0a208 208 0 1 0 0 416zm48-208a48 48 0 1 0 -96 0 48 48 0 1 0 96 0zM208 448c-54 0-103.9-17.9-144-48V512H320h32H464h24V488 441.6c14.3-8.3 24-23.8 24-41.6c0-26.5-21.5-48-48-48s-48 21.5-48 48c0 17.8 9.7 33.3 24 41.6V464H352V400c-40.1 30.1-90 48-144 48z"/></svg>
